X: 9088
T: Da Peerie Hoose Under Da Hill
R: reel
M: 4/4
K: Gmajor
A|:G2 GA g2 gg|G2 GA BcBA|G2 GA g2 ga|1 gedc BA BA:|2 gedc BA Bd||
|:e2 ec d2 dB|eA A/A/A BABd|eeec defa|gedc BA B2:|

